src/icons/baseBottomRight.svg

<svg fill="none" height="279" viewBox="0 0 317 279" width="317" xmlns="http://www.w3.org/2000/svg"><path d="m262.242 252.329c59.507-44.139 71.965-128.161 27.825-187.6669-44.139-59.50682-128.16-71.96453-187.667-27.825-59.5066 44.139-71.9643 128.1609-27.825 187.6669 44.139 59.507 128.161 71.965 187.667 27.825z" fill="#fff"/><path d="m222.013 246.245-61.351-78.936c1.512-1.175 2.936-2.465 4.229-3.832l72.585 68.749c-4.765 5.031-9.965 9.747-15.463 14.019zm-22.645 14.313c-6.23 3.133-12.75 5.808-19.384 7.952l-30.746-95.128c1.78-.576 3.534-1.295 5.205-2.136zm54.614-49.623-84.671-53.156c.996-1.585 1.878-3.263 2.619-4.983l91.793 39.612c-2.76 6.395-6.038 12.629-9.741 18.527zm-100.32 63.288c-6.907.799-13.935 1.072-20.888.812l3.73-99.905c1.892.071 3.803-.003 5.678-.219zm118.238-107.382-97.743-21.009c.401-1.862.661-3.767.776-5.661l99.793 5.994c-.417 6.929-1.368 13.887-2.826 20.676zm-165.687 104.592c-6.778-1.601-13.479-3.737-19.92-6.346l37.526-92.663c1.74.705 3.557 1.283 5.399 1.719zm167.497-152.115-99.049 13.566c-.256-1.87-.657-3.726-1.191-5.519l95.819-28.521c1.985 6.673 3.475 13.561 4.421 20.474zm-211.237 133.278c-5.839-3.837-11.423-8.157-16.5965-12.84l67.0865-74.123c1.378 1.246 2.865 2.399 4.425 3.424zm196.623-178.683-88.361 46.772c-.882-1.67-1.911-3.299-3.057-4.844l-.224-.301 80.296-59.56.224.301c4.143 5.585 7.885 11.518 11.122 17.632zm-231.3063 145.925-.1119-.151c-4.0819-5.503-7.7753-11.347-10.9816-17.368l88.2538-46.972c.878 1.649 1.894 3.256 3.025 4.78zm134.8563-109.543c-1.391-1.254-2.888-2.407-4.446-3.426l54.73-83.662c5.833 3.8153 11.421 8.119 16.611 12.791zm-60.443 38.377-95.75442 28.741c-2.0066-6.689-3.511-13.586-4.4691-20.503l99.03052-13.717c.254 1.851.656 3.694 1.193 5.479zm49.572-45.154c-1.753-.705-3.578-1.281-5.42-1.714l22.8-97.33797c6.77 1.584 13.471 3.70429 19.919 6.29687zm-51.06 32.354-99.80582-5.771c.4011-6.938 1.337-13.9 2.7841-20.696l97.78272 20.818c-.397 1.856-.651 3.756-.761 5.649zm38.354-35.039c-1.892-.066-3.801.011-5.673.233l-11.706-99.28588c6.906-.8148 13.937-1.104595 20.895-.859695zm-35.381 22.415-91.8745-39.421c2.75-6.409 6.0151-12.65 9.7015-18.55l84.78 52.982c-.988 1.581-1.865 3.259-2.607 4.989zm22.642-20.634c-1.775.577-3.521 1.297-5.194 2.143l-45.114-89.2158c6.229-3.1497 12.747-5.83997 19.376-7.99677zm-15.626 9.934-72.7286-68.595c4.7542-5.041 9.9486-9.769 15.4346-14.052l61.517 78.807c-1.509 1.177-2.931 2.469-4.223 3.84z" fill="#c1cb8b"/></svg>

<svg width="317" height="279" viewBox="0 0 317 279" fill="none" xmlns="http://www.w3.org/2000/svg">
<path d="M262.242 252.329C321.749 208.19 334.207 124.168 290.067 64.6621C245.928 5.15528 161.907 -7.30243 102.4 36.8371C42.8934 80.9761 30.4357 164.998 74.575 224.504C118.714 284.011 202.736 296.469 262.242 252.329Z" fill="white"/>
<path d="M222.013 246.245L160.662 167.309C162.174 166.134 163.598 164.844 164.891 163.477L237.476 232.226C232.711 237.257 227.511 241.973 222.013 246.245ZM199.368 260.558C193.138 263.691 186.618 266.366 179.984 268.51L149.238 173.382C151.018 172.806 152.772 172.087 154.443 171.246L199.368 260.558ZM253.982 210.935L169.311 157.779C170.307 156.194 171.189 154.516 171.93 152.796L263.723 192.408C260.963 198.803 257.685 205.037 253.982 210.935ZM153.662 274.223C146.755 275.022 139.727 275.295 132.774 275.035L136.504 175.13C138.396 175.201 140.307 175.127 142.182 174.911L153.662 274.223ZM271.9 166.841L174.157 145.832C174.558 143.97 174.818 142.065 174.933 140.171L274.726 146.165C274.309 153.094 273.358 160.052 271.9 166.841ZM106.213 271.433C99.435 269.832 92.734 267.696 86.293 265.087L123.819 172.424C125.559 173.129 127.376 173.707 129.218 174.143L106.213 271.433ZM273.71 119.318L174.661 132.884C174.405 131.014 174.004 129.158 173.47 127.365L269.289 98.844C271.274 105.517 272.764 112.405 273.71 119.318ZM62.473 252.596C56.634 248.759 51.05 244.439 45.8765 239.756L112.963 165.633C114.341 166.879 115.828 168.032 117.388 169.057L62.473 252.596ZM259.096 73.913L170.735 120.685C169.853 119.015 168.824 117.386 167.678 115.841L167.454 115.54L247.75 55.98L247.974 56.281C252.117 61.866 255.859 67.799 259.096 73.913ZM27.7897 219.838L27.6778 219.687C23.5959 214.184 19.9025 208.34 16.6962 202.319L104.95 155.347C105.828 156.996 106.844 158.603 107.975 160.127L27.7897 219.838ZM162.646 110.295C161.255 109.041 159.758 107.888 158.2 106.869L212.93 23.207C218.763 27.0223 224.351 31.326 229.541 35.998L162.646 110.295ZM102.203 148.672L6.44858 177.413C4.44198 170.724 2.93758 163.827 1.97948 156.91L101.01 143.193C101.264 145.044 101.666 146.887 102.203 148.672ZM151.775 103.518C150.022 102.813 148.197 102.237 146.355 101.804L169.155 4.46603C175.925 6.05003 182.626 8.17032 189.074 10.7629L151.775 103.518ZM100.715 135.872L0.90918 130.101C1.31028 123.163 2.24618 116.201 3.69328 109.405L101.476 130.223C101.079 132.079 100.825 133.979 100.715 135.872ZM139.069 100.833C137.177 100.767 135.268 100.844 133.396 101.066L121.69 1.78012C128.596 0.96532 135.627 0.675525 142.585 0.920425L139.069 100.833ZM103.688 123.248L11.8135 83.827C14.5635 77.418 17.8286 71.177 21.515 65.277L106.295 118.259C105.307 119.84 104.43 121.518 103.688 123.248ZM126.33 102.614C124.555 103.191 122.809 103.911 121.136 104.757L76.022 15.5412C82.251 12.3915 88.769 9.70123 95.398 7.54443L126.33 102.614ZM110.704 112.548L37.9754 43.953C42.7296 38.912 47.924 34.184 53.41 29.901L114.927 108.708C113.418 109.885 111.996 111.177 110.704 112.548Z" fill="#C1CB8B"/>
</svg>
